X: 68
T: St. Anne's Reel
N: page 23
N: heptatonic
N: matches 185
S: Bernie Waugh
R: Reel
M: 4/4
L: 1/8
K: D
|:e2|\
"D"f2 fg "A7"fedB|"D"A2 FA A2 FA|"Em"B2 GB B2 GB|"D"ABAG FAde|"D"f2fg "A7"fedB|
"D"(3ABA FA DAFA|"Em"BGBd "A"cAce|"G"d2 f2 "D"d2:|ag|"D"fdfa fdfa|"G"aggf "Em"g2 gf|"A7"edcB ABce|
"E7"baa^g "A7"a2 a=g|"D"fdfa "Bm" fdfa|"G"aggf g2 gf|"Em"edcB "A"Aceg|"G"fdec "D"d2:|
